X: 34618
T: Road South, The
R: jig
M: 6/8
K: Eminor
|:EFG EFG|c2B A2G|FGA FED|EFG AFG|
EFG EFG|c2B A2G|FGA FED|EFE E2B,:|
EGB e2B|c2B A2G|FGA d2A|c2B AGF|
EGB e2B|c2B A2G|FGA FED|EFE E2B,|
EGB e2B|c2B A2G|FGA d2f|e2d BGF|
EGB e2B|c2B A2G|FGA FED|EFE E2B,||

